svg/work-doodle-kristaps-b.svg

<svg width="273" height="360" viewBox="0 0 273 360" fill="none" xmlns="http://www.w3.org/2000/svg">
<path d="M116.7 67.9502C122.339 67.9502 127.94 68.2582 133.525 69.1252C139.902 70.1152 146.183 71.5277 152.575 72.4502C159.641 73.47 166.75 74.1533 173.825 75.0377C176.579 75.382 179.45 75.7342 182.225 75.8252C183.017 75.8512 183.749 76.0502 184.55 76.0502C184.885 76.0502 185.109 76.1415 185.412 76.2627C185.927 76.4685 184.304 76.2752 183.75 76.2752" stroke="#15CE79" stroke-width="2.7" stroke-linecap="round"/>
<path d="M123.45 85.9502C131.17 87.0359 138.895 87.8619 146.6 89.1002C153.215 90.1634 159.851 91.0816 166.45 92.2502C169.485 92.7876 172.791 92.7199 175.875 92.9127C177.463 93.012 182.191 93.6002 180.6 93.6002" stroke="#15CE79" stroke-width="2.7" stroke-linecap="round"/>
<path d="M184.875 77.4C186.105 76.17 187.316 74.9703 188.363 73.575C190.006 71.384 191.578 70.0198 193.975 68.7375C196.228 67.5325 198.504 67.05 201.063 67.05C202.383 67.05 204.615 66.6014 205.813 67.3C207.019 68.0038 207.93 69.095 209 69.975C210.005 70.801 211.055 71.6196 211.825 72.675C212.184 73.1676 213.756 77.4 213.45 77.4" stroke="#15CE79" stroke-width="2.7" stroke-linecap="round"/>
<path d="M210.975 85.2746C208.504 82.3208 205.372 80.1215 202.663 77.4121C202.027 76.777 201.253 76.4168 200.575 75.8746C200.119 75.5097 198.547 76.9725 198.263 77.1746C195.84 78.8935 193.526 80.7491 191.088 82.4371C190.601 82.774 190.142 83.1339 189.65 83.4746C188.688 84.1407 189.717 84.5607 190.288 85.0746C192.349 86.9301 193.702 89.453 194.775 91.9746C195.457 93.5771 196.59 95.0222 197.425 96.5246C197.65 96.9287 197.787 97.4941 198.275 96.9621C199.206 95.9464 200.952 95.3886 202.2 94.8996C204.071 94.1663 206.175 93.1244 207.825 92.0246" stroke="#15CE79" stroke-width="2.7" stroke-linecap="round"/>
<path d="M210.75 85.5C211.464 84.7863 212.167 84.1034 213 83.525C213.743 83.0088 214.438 83.108 215.075 82.4C216.049 81.3174 213.225 77.9528 213.225 76.5" stroke="#15CE79" stroke-width="2.7" stroke-linecap="round"/>
<path d="M208.95 92.25C210.079 93.6044 213.056 95.8541 212.2 97.8C211.834 98.6326 211.305 99.3264 210.863 100.112C210.463 100.822 210.155 101.598 209.575 102.2C206.728 105.156 203.378 107.695 199.263 108.35C196.495 108.79 193.881 108.952 191.35 107.55C188.967 106.23 186.915 104.64 184.988 102.712C183.15 100.875 183 98.838 182.4 96.475C182.122 95.38 182.602 93.7422 181.5 93.375" stroke="#15CE79" stroke-width="2.7" stroke-linecap="round"/>
<path d="M116.25 67.725C116.331 66.1807 116.756 64.8077 116.025 63.325C115.324 61.9026 114.143 61.1372 112.875 60.3C109.503 58.0731 106.316 57.4516 102.325 58.15C99.1723 58.7017 94.9668 60.3417 93.525 63.5C92.7312 65.2388 91.5837 66.8055 90.825 68.5125C90.4685 69.3148 90.2899 69.1554 91.1625 69.7625C92.4616 70.6662 93.7507 71.6005 95.05 72.5C95.7351 72.9743 103.245 67.3916 103.65 68.1C104.244 69.14 105.295 70.1459 106.263 70.8625C108.18 72.2827 109.619 73.9193 111.3 75.6C111.49 75.7901 113.584 77.4569 113.5 77.625C112.854 78.9163 110.717 79.9585 109.725 81.0125C109.321 81.442 102.607 89.1775 102.075 88.5125C101.274 87.5111 100.392 86.8443 99.375 86.05C97.9147 84.9091 97.0553 83.5144 96.225 81.9C95.1847 79.8771 93.7757 81.2829 92.0375 81.7875C90.7337 82.166 89.4309 82.5498 88.125 82.9125C87.1546 83.1821 87.45 83.845 87.45 84.775C87.45 88.2979 90.0827 90.8509 92.875 92.7125C96.7853 95.3193 102.358 97.0887 107.075 96.975C109.445 96.9179 111.374 95.5046 113.375 94.4C115.504 93.2246 117.407 91.8936 119.275 90.35C120.37 89.4452 120.936 88.8807 121.313 87.525C121.436 87.0805 121.247 86.1515 121.65 85.95" stroke="#15CE79" stroke-width="2.7" stroke-linecap="round"/>
</svg>

<svg xmlns="http://www.w3.org/2000/svg" width="273" height="360" fill="none"><path stroke="#15CE79" stroke-linecap="round" stroke-width="2.7" d="M116.7 67.95c5.639 0 11.24.308 16.825 1.175 6.377.99 12.658 2.403 19.05 3.325 7.066 1.02 14.175 1.703 21.25 2.588 2.754.344 5.625.696 8.4.787.792.026 1.524.225 2.325.225.335 0 .559.091.862.213.515.206-1.108.012-1.662.012m-60.3 9.675c7.72 1.086 15.445 1.912 23.15 3.15 6.615 1.063 13.251 1.982 19.85 3.15 3.035.538 6.341.47 9.425.663 1.588.099 6.316.687 4.725.687m4.275-16.2c1.23-1.23 2.441-2.43 3.488-3.825 1.643-2.191 3.215-3.555 5.612-4.838 2.253-1.204 4.529-1.687 7.088-1.687 1.32 0 3.552-.449 4.75.25 1.206.704 2.117 1.795 3.187 2.675 1.005.826 2.055 1.645 2.825 2.7.359.493 1.931 4.725 1.625 4.725"/><path stroke="#15CE79" stroke-linecap="round" stroke-width="2.7" d="M210.975 85.275c-2.471-2.954-5.603-5.154-8.312-7.863-.636-.635-1.41-.995-2.088-1.537-.456-.365-2.028 1.097-2.312 1.3-2.423 1.719-4.737 3.574-7.175 5.262-.487.337-.946.697-1.438 1.038-.962.666.067 1.086.638 1.6 2.061 1.855 3.414 4.378 4.487 6.9.682 1.602 1.815 3.047 2.65 4.55.225.404.362.97.85.437.931-1.016 2.677-1.573 3.925-2.062 1.871-.734 3.975-1.776 5.625-2.875"/><path stroke="#15CE79" stroke-linecap="round" stroke-width="2.7" d="M210.75 85.5c.714-.714 1.417-1.397 2.25-1.975.743-.516 1.438-.417 2.075-1.125.974-1.083-1.85-4.447-1.85-5.9m-4.275 15.75c1.129 1.354 4.106 3.604 3.25 5.55-.366.833-.895 1.526-1.337 2.312-.4.71-.708 1.486-1.288 2.088-2.847 2.956-6.197 5.495-10.312 6.15-2.768.44-5.382.602-7.913-.8-2.383-1.32-4.435-2.91-6.362-4.838-1.838-1.837-1.988-3.874-2.588-6.237-.278-1.095.202-2.733-.9-3.1m-65.25-25.65c.081-1.544.506-2.917-.225-4.4-.701-1.422-1.882-2.188-3.15-3.025-3.372-2.227-6.559-2.848-10.55-2.15-3.153.552-7.358 2.192-8.8 5.35-.794 1.739-1.941 3.305-2.7 5.013-.356.802-.535.642.337 1.25 1.3.903 2.589 1.837 3.888 2.737.685.474 8.195-5.108 8.6-4.4.594 1.04 1.645 2.046 2.613 2.763 1.917 1.42 3.356 3.056 5.037 4.737.19.19 2.284 1.857 2.2 2.025-.646 1.291-2.783 2.334-3.775 3.388-.404.429-7.118 8.164-7.65 7.5-.801-1.002-1.683-1.669-2.7-2.463-1.46-1.14-2.32-2.536-3.15-4.15-1.04-2.023-2.45-.617-4.188-.113-1.303.379-2.606.763-3.912 1.125-.97.27-.675.933-.675 1.863 0 3.523 2.633 6.076 5.425 7.938 3.91 2.606 9.483 4.376 14.2 4.262 2.37-.057 4.299-1.47 6.3-2.575 2.129-1.175 4.032-2.506 5.9-4.05 1.095-.905 1.661-1.47 2.038-2.825.123-.445-.066-1.374.337-1.575"/></svg>
